static/img/site/glace-cards.svg

<svg xmlns="http://www.w3.org/2000/svg" width="358" height="301" fill="none" viewBox="0 0 358 301"><g clip-path="url(#a)"><rect width="358" height="301" fill="#009fee" rx="40"/><g filter="url(#b)"><ellipse cx="179" cy="146" fill="#c0eaff" rx="149" ry="146"/></g><foreignObject width="232.026" height="295.139" x="208.873" y="99.393"><div xmlns="http://www.w3.org/1999/xhtml" style="backdrop-filter:blur(14.45px);clip-path:url(#c);height:100%;width:100%"/></foreignObject><g data-figma-bg-blur-radius="28.899" filter="url(#d)"><path fill="url(#e)" fill-opacity=".7" d="M237.773 138.945v165.871c0 4.601 2.955 8.681 7.327 10.115l152.938 50.163c6.883 2.258 13.962-2.87 13.962-10.114V194.358a19.515 19.515 0 0 0-13.566-18.585l-146.772-46.967c-6.869-2.198-13.889 2.927-13.889 10.139" shape-rendering="crispEdges"/></g><foreignObject width="232.026" height="295.139" x="106.66" y="99.393"><div xmlns="http://www.w3.org/1999/xhtml" style="backdrop-filter:blur(14.45px);clip-path:url(#f);height:100%;width:100%"/></foreignObject><g data-figma-bg-blur-radius="28.899" filter="url(#g)"><path fill="url(#h)" fill-opacity=".7" d="M135.56 138.945v165.871c0 4.601 2.955 8.681 7.327 10.115l152.938 50.163c6.883 2.258 13.962-2.87 13.962-10.114V194.358a19.515 19.515 0 0 0-13.566-18.585l-146.772-46.967c-6.869-2.198-13.889 2.927-13.889 10.139" shape-rendering="crispEdges"/></g><foreignObject width="232.026" height="295.139" x="4.447" y="99.393"><div xmlns="http://www.w3.org/1999/xhtml" style="backdrop-filter:blur(14.45px);clip-path:url(#i);height:100%;width:100%"/></foreignObject><g data-figma-bg-blur-radius="28.899" filter="url(#j)"><path fill="url(#k)" fill-opacity=".7" d="M33.347 138.945v165.871c0 4.601 2.955 8.681 7.327 10.115l152.938 50.163c6.883 2.258 13.962-2.87 13.962-10.114V194.358a19.515 19.515 0 0 0-13.566-18.585L47.236 128.806c-6.87-2.198-13.89 2.927-13.89 10.139" shape-rendering="crispEdges"/></g><foreignObject width="232.026" height="295.139" x="-82.899" y="102.18"><div xmlns="http://www.w3.org/1999/xhtml" style="backdrop-filter:blur(14.45px);clip-path:url(#l);height:100%;width:100%"/></foreignObject><g data-figma-bg-blur-radius="28.899" filter="url(#m)"><path fill="url(#n)" fill-opacity=".7" d="M-54 141.732v165.872c0 4.6 2.956 8.68 7.327 10.114l152.938 50.164c6.883 2.257 13.962-2.871 13.962-10.115V197.146a19.51 19.51 0 0 0-13.566-18.585l-146.772-46.967C-46.98 129.396-54 134.52-54 141.732" shape-rendering="crispEdges"/></g></g><defs><clipPath id="c" transform="translate(-208.873 -99.393)"><path d="M237.773 138.945v165.871c0 4.601 2.955 8.681 7.327 10.115l152.938 50.163c6.883 2.258 13.962-2.87 13.962-10.114V194.358a19.515 19.515 0 0 0-13.566-18.585l-146.772-46.967c-6.869-2.198-13.889 2.927-13.889 10.139"/></clipPath><clipPath id="f" transform="translate(-106.66 -99.393)"><path d="M135.56 138.945v165.871c0 4.601 2.955 8.681 7.327 10.115l152.938 50.163c6.883 2.258 13.962-2.87 13.962-10.114V194.358a19.515 19.515 0 0 0-13.566-18.585l-146.772-46.967c-6.869-2.198-13.889 2.927-13.889 10.139"/></clipPath><clipPath id="i" transform="translate(-4.447 -99.393)"><path d="M33.347 138.945v165.871c0 4.601 2.955 8.681 7.327 10.115l152.938 50.163c6.883 2.258 13.962-2.87 13.962-10.114V194.358a19.515 19.515 0 0 0-13.566-18.585L47.236 128.806c-6.87-2.198-13.89 2.927-13.89 10.139"/></clipPath><clipPath id="l" transform="translate(82.9 -102.18)"><path d="M-54 141.732v165.872c0 4.6 2.956 8.68 7.327 10.114l152.938 50.164c6.883 2.257 13.962-2.871 13.962-10.115V197.146a19.51 19.51 0 0 0-13.566-18.585l-146.772-46.967C-46.98 129.396-54 134.52-54 141.732"/></clipPath><clipPath id="a"><rect width="358" height="301" fill="#fff" rx="40"/></clipPath><filter id="b" width="674" height="668" x="-158" y="-188" color-interpolation-filters="sRGB" filterUnits="userSpaceOnUse"><feFlood flood-opacity="0" result="BackgroundImageFix"/><feBlend in="SourceGraphic" in2="BackgroundImageFix" result="shape"/><feGaussianBlur result="effect1_foregroundBlur_221_59" stdDeviation="94"/></filter><filter id="d" width="232.026" height="295.139" x="208.873" y="99.393" color-interpolation-filters="sRGB" filterUnits="userSpaceOnUse"><feFlood flood-opacity="0" result="BackgroundImageFix"/><feColorMatrix in="SourceAlpha" result="hardAlpha" values="0 0 0 0 0 0 0 0 0 0 0 0 0 0 0 0 0 0 127 0"/><feOffset dx="2.788" dy="2.788"/><feGaussianBlur stdDeviation="5.575"/><feComposite in2="hardAlpha" operator="out"/><feColorMatrix values="0 0 0 0 0 0 0 0 0 0 0 0 0 0 0 0 0 0 0.13 0"/><feBlend in2="BackgroundImageFix" result="effect1_dropShadow_221_59"/><feBlend in="SourceGraphic" in2="effect1_dropShadow_221_59" result="shape"/></filter><filter id="g" width="232.026" height="295.139" x="106.66" y="99.393" color-interpolation-filters="sRGB" filterUnits="userSpaceOnUse"><feFlood flood-opacity="0" result="BackgroundImageFix"/><feColorMatrix in="SourceAlpha" result="hardAlpha" values="0 0 0 0 0 0 0 0 0 0 0 0 0 0 0 0 0 0 127 0"/><feOffset dx="2.788" dy="2.788"/><feGaussianBlur stdDeviation="5.575"/><feComposite in2="hardAlpha" operator="out"/><feColorMatrix values="0 0 0 0 0 0 0 0 0 0 0 0 0 0 0 0 0 0 0.13 0"/><feBlend in2="BackgroundImageFix" result="effect1_dropShadow_221_59"/><feBlend in="SourceGraphic" in2="effect1_dropShadow_221_59" result="shape"/></filter><filter id="j" width="232.026" height="295.139" x="4.447" y="99.393" color-interpolation-filters="sRGB" filterUnits="userSpaceOnUse"><feFlood flood-opacity="0" result="BackgroundImageFix"/><feColorMatrix in="SourceAlpha" result="hardAlpha" values="0 0 0 0 0 0 0 0 0 0 0 0 0 0 0 0 0 0 127 0"/><feOffset dx="2.788" dy="2.788"/><feGaussianBlur stdDeviation="5.575"/><feComposite in2="hardAlpha" operator="out"/><feColorMatrix values="0 0 0 0 0 0 0 0 0 0 0 0 0 0 0 0 0 0 0.13 0"/><feBlend in2="BackgroundImageFix" result="effect1_dropShadow_221_59"/><feBlend in="SourceGraphic" in2="effect1_dropShadow_221_59" result="shape"/></filter><filter id="m" width="232.026" height="295.139" x="-82.899" y="102.18" color-interpolation-filters="sRGB" filterUnits="userSpaceOnUse"><feFlood flood-opacity="0" result="BackgroundImageFix"/><feColorMatrix in="SourceAlpha" result="hardAlpha" values="0 0 0 0 0 0 0 0 0 0 0 0 0 0 0 0 0 0 127 0"/><feOffset dx="2.788" dy="2.788"/><feGaussianBlur stdDeviation="5.575"/><feComposite in2="hardAlpha" operator="out"/><feColorMatrix values="0 0 0 0 0 0 0 0 0 0 0 0 0 0 0 0 0 0 0.13 0"/><feBlend in2="BackgroundImageFix" result="effect1_dropShadow_221_59"/><feBlend in="SourceGraphic" in2="effect1_dropShadow_221_59" result="shape"/></filter><linearGradient id="e" x1="325.119" x2="325.119" y1="155.026" y2="462.595" gradientUnits="userSpaceOnUse"><stop stop-color="#fff"/><stop offset="1" stop-color="#8dd6fa" stop-opacity="0"/></linearGradient><linearGradient id="h" x1="222.906" x2="222.906" y1="155.026" y2="462.595" gradientUnits="userSpaceOnUse"><stop stop-color="#fff"/><stop offset="1" stop-color="#8dd6fa" stop-opacity="0"/></linearGradient><linearGradient id="k" x1="120.693" x2="120.693" y1="155.026" y2="462.595" gradientUnits="userSpaceOnUse"><stop stop-color="#fff"/><stop offset="1" stop-color="#8dd6fa" stop-opacity="0"/></linearGradient><linearGradient id="n" x1="33.346" x2="33.346" y1="157.813" y2="465.383" gradientUnits="userSpaceOnUse"><stop stop-color="#fff"/><stop offset="1" stop-color="#8dd6fa" stop-opacity="0"/></linearGradient></defs></svg>

<svg xmlns="http://www.w3.org/2000/svg" width="358" height="301" viewBox="0 0 358 301" fill="none">
<g clip-path="url(#clip0_221_59)">
<rect width="358" height="301" rx="40" fill="#009FEE"/>
<g filter="url(#filter0_f_221_59)">
<ellipse cx="179" cy="146" rx="149" ry="146" fill="#C0EAFF"/>
</g>
<foreignObject x="208.873" y="99.393" width="232.026" height="295.139"><div xmlns="http://www.w3.org/1999/xhtml" style="backdrop-filter:blur(14.45px);clip-path:url(#bgblur_1_221_59_clip_path);height:100%;width:100%"></div></foreignObject><g filter="url(#filter2_d_221_59)" data-figma-bg-blur-radius="28.8992">
<path d="M237.773 138.945V255.845V304.816C237.773 309.417 240.728 313.497 245.1 314.931L398.038 365.094C404.921 367.352 412 362.224 412 354.98V194.358C412 185.873 406.516 178.36 398.434 175.773L251.662 128.806C244.793 126.608 237.773 131.733 237.773 138.945Z" fill="url(#paint0_linear_221_59)" fill-opacity="0.7" shape-rendering="crispEdges"/>
</g>
<foreignObject x="106.66" y="99.393" width="232.026" height="295.139"><div xmlns="http://www.w3.org/1999/xhtml" style="backdrop-filter:blur(14.45px);clip-path:url(#bgblur_2_221_59_clip_path);height:100%;width:100%"></div></foreignObject><g filter="url(#filter3_d_221_59)" data-figma-bg-blur-radius="28.8992">
<path d="M135.56 138.945V255.845V304.816C135.56 309.417 138.515 313.497 142.887 314.931L295.825 365.094C302.708 367.352 309.787 362.224 309.787 354.98V194.358C309.787 185.873 304.303 178.36 296.221 175.773L149.449 128.806C142.58 126.608 135.56 131.733 135.56 138.945Z" fill="url(#paint1_linear_221_59)" fill-opacity="0.7" shape-rendering="crispEdges"/>
</g>
<foreignObject x="4.44739" y="99.393" width="232.026" height="295.139"><div xmlns="http://www.w3.org/1999/xhtml" style="backdrop-filter:blur(14.45px);clip-path:url(#bgblur_3_221_59_clip_path);height:100%;width:100%"></div></foreignObject><g filter="url(#filter4_d_221_59)" data-figma-bg-blur-radius="28.8992">
<path d="M33.3466 138.945V255.845V304.816C33.3466 309.417 36.3023 313.497 40.6738 314.931L193.612 365.094C200.495 367.352 207.574 362.224 207.574 354.98V194.358C207.574 185.873 202.09 178.36 194.008 175.773L47.2356 128.806C40.3669 126.608 33.3466 131.733 33.3466 138.945Z" fill="url(#paint2_linear_221_59)" fill-opacity="0.7" shape-rendering="crispEdges"/>
</g>
<foreignObject x="-82.8992" y="102.18" width="232.026" height="295.139"><div xmlns="http://www.w3.org/1999/xhtml" style="backdrop-filter:blur(14.45px);clip-path:url(#bgblur_4_221_59_clip_path);height:100%;width:100%"></div></foreignObject><g filter="url(#filter5_d_221_59)" data-figma-bg-blur-radius="28.8992">
<path d="M-54 141.732V258.633V307.604C-54 312.204 -51.0444 316.284 -46.6728 317.718L106.265 367.882C113.148 370.139 120.227 365.011 120.227 357.767V197.146C120.227 188.66 114.743 181.147 106.661 178.561L-40.111 131.594C-46.9797 129.396 -54 134.52 -54 141.732Z" fill="url(#paint3_linear_221_59)" fill-opacity="0.7" shape-rendering="crispEdges"/>
</g>
</g>
<defs>
<filter id="filter0_f_221_59" x="-158" y="-188" width="674" height="668" filterUnits="userSpaceOnUse" color-interpolation-filters="sRGB">
<feFlood flood-opacity="0" result="BackgroundImageFix"/>
<feBlend mode="normal" in="SourceGraphic" in2="BackgroundImageFix" result="shape"/>
<feGaussianBlur stdDeviation="94" result="effect1_foregroundBlur_221_59"/>
</filter>
<filter id="filter2_d_221_59" x="208.873" y="99.393" width="232.026" height="295.139" filterUnits="userSpaceOnUse" color-interpolation-filters="sRGB">
<feFlood flood-opacity="0" result="BackgroundImageFix"/>
<feColorMatrix in="SourceAlpha" type="matrix" values="0 0 0 0 0 0 0 0 0 0 0 0 0 0 0 0 0 0 127 0" result="hardAlpha"/>
<feOffset dx="2.78764" dy="2.78764"/>
<feGaussianBlur stdDeviation="5.57528"/>
<feComposite in2="hardAlpha" operator="out"/>
<feColorMatrix type="matrix" values="0 0 0 0 0 0 0 0 0 0 0 0 0 0 0 0 0 0 0.13 0"/>
<feBlend mode="normal" in2="BackgroundImageFix" result="effect1_dropShadow_221_59"/>
<feBlend mode="normal" in="SourceGraphic" in2="effect1_dropShadow_221_59" result="shape"/>
</filter>
<clipPath id="bgblur_1_221_59_clip_path" transform="translate(-208.873 -99.393)"><path d="M237.773 138.945V255.845V304.816C237.773 309.417 240.728 313.497 245.1 314.931L398.038 365.094C404.921 367.352 412 362.224 412 354.98V194.358C412 185.873 406.516 178.36 398.434 175.773L251.662 128.806C244.793 126.608 237.773 131.733 237.773 138.945Z"/>
</clipPath><filter id="filter3_d_221_59" x="106.66" y="99.393" width="232.026" height="295.139" filterUnits="userSpaceOnUse" color-interpolation-filters="sRGB">
<feFlood flood-opacity="0" result="BackgroundImageFix"/>
<feColorMatrix in="SourceAlpha" type="matrix" values="0 0 0 0 0 0 0 0 0 0 0 0 0 0 0 0 0 0 127 0" result="hardAlpha"/>
<feOffset dx="2.78764" dy="2.78764"/>
<feGaussianBlur stdDeviation="5.57528"/>
<feComposite in2="hardAlpha" operator="out"/>
<feColorMatrix type="matrix" values="0 0 0 0 0 0 0 0 0 0 0 0 0 0 0 0 0 0 0.13 0"/>
<feBlend mode="normal" in2="BackgroundImageFix" result="effect1_dropShadow_221_59"/>
<feBlend mode="normal" in="SourceGraphic" in2="effect1_dropShadow_221_59" result="shape"/>
</filter>
<clipPath id="bgblur_2_221_59_clip_path" transform="translate(-106.66 -99.393)"><path d="M135.56 138.945V255.845V304.816C135.56 309.417 138.515 313.497 142.887 314.931L295.825 365.094C302.708 367.352 309.787 362.224 309.787 354.98V194.358C309.787 185.873 304.303 178.36 296.221 175.773L149.449 128.806C142.58 126.608 135.56 131.733 135.56 138.945Z"/>
</clipPath><filter id="filter4_d_221_59" x="4.44739" y="99.393" width="232.026" height="295.139" filterUnits="userSpaceOnUse" color-interpolation-filters="sRGB">
<feFlood flood-opacity="0" result="BackgroundImageFix"/>
<feColorMatrix in="SourceAlpha" type="matrix" values="0 0 0 0 0 0 0 0 0 0 0 0 0 0 0 0 0 0 127 0" result="hardAlpha"/>
<feOffset dx="2.78764" dy="2.78764"/>
<feGaussianBlur stdDeviation="5.57528"/>
<feComposite in2="hardAlpha" operator="out"/>
<feColorMatrix type="matrix" values="0 0 0 0 0 0 0 0 0 0 0 0 0 0 0 0 0 0 0.13 0"/>
<feBlend mode="normal" in2="BackgroundImageFix" result="effect1_dropShadow_221_59"/>
<feBlend mode="normal" in="SourceGraphic" in2="effect1_dropShadow_221_59" result="shape"/>
</filter>
<clipPath id="bgblur_3_221_59_clip_path" transform="translate(-4.44739 -99.393)"><path d="M33.3466 138.945V255.845V304.816C33.3466 309.417 36.3023 313.497 40.6738 314.931L193.612 365.094C200.495 367.352 207.574 362.224 207.574 354.98V194.358C207.574 185.873 202.09 178.36 194.008 175.773L47.2356 128.806C40.3669 126.608 33.3466 131.733 33.3466 138.945Z"/>
</clipPath><filter id="filter5_d_221_59" x="-82.8992" y="102.18" width="232.026" height="295.139" filterUnits="userSpaceOnUse" color-interpolation-filters="sRGB">
<feFlood flood-opacity="0" result="BackgroundImageFix"/>
<feColorMatrix in="SourceAlpha" type="matrix" values="0 0 0 0 0 0 0 0 0 0 0 0 0 0 0 0 0 0 127 0" result="hardAlpha"/>
<feOffset dx="2.78764" dy="2.78764"/>
<feGaussianBlur stdDeviation="5.57528"/>
<feComposite in2="hardAlpha" operator="out"/>
<feColorMatrix type="matrix" values="0 0 0 0 0 0 0 0 0 0 0 0 0 0 0 0 0 0 0.13 0"/>
<feBlend mode="normal" in2="BackgroundImageFix" result="effect1_dropShadow_221_59"/>
<feBlend mode="normal" in="SourceGraphic" in2="effect1_dropShadow_221_59" result="shape"/>
</filter>
<clipPath id="bgblur_4_221_59_clip_path" transform="translate(82.8992 -102.18)"><path d="M-54 141.732V258.633V307.604C-54 312.204 -51.0444 316.284 -46.6728 317.718L106.265 367.882C113.148 370.139 120.227 365.011 120.227 357.767V197.146C120.227 188.66 114.743 181.147 106.661 178.561L-40.111 131.594C-46.9797 129.396 -54 134.52 -54 141.732Z"/>
</clipPath><linearGradient id="paint0_linear_221_59" x1="325.119" y1="155.026" x2="325.119" y2="462.595" gradientUnits="userSpaceOnUse">
<stop stop-color="white"/>
<stop offset="1" stop-color="#8DD6FA" stop-opacity="0"/>
</linearGradient>
<linearGradient id="paint1_linear_221_59" x1="222.906" y1="155.026" x2="222.906" y2="462.595" gradientUnits="userSpaceOnUse">
<stop stop-color="white"/>
<stop offset="1" stop-color="#8DD6FA" stop-opacity="0"/>
</linearGradient>
<linearGradient id="paint2_linear_221_59" x1="120.693" y1="155.026" x2="120.693" y2="462.595" gradientUnits="userSpaceOnUse">
<stop stop-color="white"/>
<stop offset="1" stop-color="#8DD6FA" stop-opacity="0"/>
</linearGradient>
<linearGradient id="paint3_linear_221_59" x1="33.346" y1="157.813" x2="33.346" y2="465.383" gradientUnits="userSpaceOnUse">
<stop stop-color="white"/>
<stop offset="1" stop-color="#8DD6FA" stop-opacity="0"/>
</linearGradient>
<clipPath id="clip0_221_59">
<rect width="358" height="301" rx="40" fill="white"/>
</clipPath>
</defs>
</svg>
